icons/lightroomclassic-filled.svg

<svg width="256" height="256" viewBox="0 0 256 256" fill="none" xmlns="http://www.w3.org/2000/svg">
<path d="M196 0H60C26.8629 0 0 26.8629 0 60V196C0 229.137 26.8629 256 60 256H196C229.137 256 256 229.137 256 196V60C256 26.8629 229.137 0 196 0Z" fill="#001E36"/>
<path d="M92.5 179.4H35.4C34.4 179.4 34 178.8 34 177.6V75.4C34 74.4 34.4 74 35.3 74H53C53.7 74 54 74.4 54 75.1V159.1H95.6C96.5 159.1 96.8 159.6 96.6 160.5L94 177.9C93.986 178.13 93.9257 178.355 93.8226 178.561C93.7195 178.768 93.5757 178.951 93.4 179.1C93.1369 179.288 92.8233 179.393 92.5 179.4Z" fill="#31A8FF"/>
<path d="M106.8 99.4H122.6C123.5 99.4 124.1 99.9 124.5 101C124.838 101.731 125.073 102.505 125.2 103.3C125.4 104.3 125.5 105.4 125.6 106.4C125.7 107.4 125.7 108.7 125.7 110C128.328 106.553 131.586 103.635 135.3 101.4C139.342 98.9702 143.985 97.723 148.7 97.8C149.6 97.8 150 98.3 150 99.2V118.7C150 119.5 149.5 119.8 148.6 119.8C142.729 119.361 136.85 120.537 131.6 123.2C129.762 124.137 128.104 125.389 126.7 126.9V177.9C126.7 178.9 126.3 179.3 125.5 179.3H108.1C107.1 179.3 106.7 178.8 106.7 177.7V122.3C106.7 119.9 106.7 117.4 106.6 114.8C106.5 112.2 106.5 109.6 106.4 107C106.3 104.8 106.1 102.6 105.8 100.4C105.77 100.086 105.84 99.7713 106 99.5C106.245 99.3694 106.53 99.3338 106.8 99.4Z" fill="#31A8FF"/>
<path d="M220.9 84.6C218.755 83.7304 216.5 83.1584 214.2 82.9C210.815 82.5009 207.409 82.3006 204 82.3C194.2 82.3 185.6 84.4 178.5 88.5C171.412 92.6324 165.653 98.7041 161.9 106C158 113.4 156.1 122.2 156.1 132C156.036 137.939 156.776 143.859 158.3 149.6C159.669 154.486 161.831 159.115 164.7 163.3C167.364 167.147 170.681 170.497 174.5 173.2C178.335 175.952 182.638 177.985 187.2 179.2C191.956 180.515 196.866 181.188 201.8 181.2C205.246 181.219 208.688 180.985 212.1 180.5C214.876 180.19 217.599 179.517 220.2 178.5C220.697 178.259 221.108 177.87 221.376 177.387C221.645 176.904 221.758 176.35 221.7 175.8V160.9C221.741 160.628 221.717 160.351 221.63 160.09C221.543 159.829 221.396 159.593 221.2 159.4C220.968 159.217 220.676 159.125 220.381 159.144C220.086 159.162 219.807 159.289 219.6 159.5C217.337 160.324 214.989 160.894 212.6 161.2C209.709 161.483 206.805 161.616 203.9 161.6C201.262 161.585 198.639 161.215 196.1 160.5C193.431 159.789 190.873 158.712 188.5 157.3C186.038 155.801 183.897 153.83 182.2 151.5C180.285 148.886 178.799 145.983 177.8 142.9C176.667 139.106 176.128 135.159 176.2 131.2C176.086 125.687 177.213 120.218 179.5 115.2C181.567 110.874 184.829 107.231 188.9 104.7C193.322 102.108 198.376 100.793 203.5 100.9C206.652 100.868 209.799 101.136 212.9 101.7C215.414 102.105 217.846 102.915 220.1 104.1C220.302 104.199 220.525 104.25 220.75 104.25C220.975 104.25 221.198 104.199 221.4 104.1C221.615 103.918 221.782 103.686 221.887 103.425C221.992 103.163 222.03 102.88 222 102.6V87C222.065 86.5367 221.996 86.0645 221.801 85.6392C221.606 85.2139 221.293 84.8533 220.9 84.6Z" fill="#31A8FF"/>
</svg>

<svg xmlns="http://www.w3.org/2000/svg" width="256" height="256" fill="none"><path fill="#001E36" d="M196 0H60C26.863 0 0 26.863 0 60v136c0 33.137 26.863 60 60 60h136c33.137 0 60-26.863 60-60V60c0-33.137-26.863-60-60-60"/><path fill="#31A8FF" d="M92.5 179.4H35.4c-1 0-1.4-.6-1.4-1.8V75.4c0-1 .4-1.4 1.3-1.4H53c.7 0 1 .4 1 1.1v84h41.6c.9 0 1.2.5 1 1.4L94 177.9a1.7 1.7 0 0 1-.6 1.2 1.6 1.6 0 0 1-.9.3m14.3-80h15.8c.9 0 1.5.5 1.9 1.6a8.8 8.8 0 0 1 .7 2.3c.2 1 .3 2.1.4 3.1s.1 2.3.1 3.6a34.3 34.3 0 0 1 9.6-8.6 25.2 25.2 0 0 1 13.4-3.6c.9 0 1.3.5 1.3 1.4v19.5c0 .8-.5 1.1-1.4 1.1a32.26 32.26 0 0 0-17 3.4 17.6 17.6 0 0 0-4.9 3.7v51c0 1-.4 1.4-1.2 1.4h-17.4c-1 0-1.4-.5-1.4-1.6v-55.4c0-2.4 0-4.9-.1-7.5s-.1-5.2-.2-7.8q-.15-3.3-.6-6.6c-.03-.314.04-.629.2-.9.245-.13.53-.166.8-.1m114.1-14.8a25.4 25.4 0 0 0-6.7-1.7c-3.385-.4-6.791-.6-10.2-.6-9.8 0-18.4 2.1-25.5 6.2a43.05 43.05 0 0 0-16.6 17.5c-3.9 7.4-5.8 16.2-5.8 26a65.8 65.8 0 0 0 2.2 17.6 46.3 46.3 0 0 0 6.4 13.7 40.1 40.1 0 0 0 9.8 9.9 39 39 0 0 0 12.7 6 55.3 55.3 0 0 0 14.6 2 70.4 70.4 0 0 0 10.3-.7 32 32 0 0 0 8.1-2 2.685 2.685 0 0 0 1.5-2.7v-14.9a1.74 1.74 0 0 0-.5-1.5 1.2 1.2 0 0 0-1.6.1 32.6 32.6 0 0 1-7 1.7 85 85 0 0 1-8.7.4 29.4 29.4 0 0 1-7.8-1.1 30 30 0 0 1-7.6-3.2 21.9 21.9 0 0 1-6.3-5.8 30.4 30.4 0 0 1-4.4-8.6 38.5 38.5 0 0 1-1.6-11.7 36.75 36.75 0 0 1 3.3-16 25.1 25.1 0 0 1 9.4-10.5 27.73 27.73 0 0 1 14.6-3.8 49.7 49.7 0 0 1 9.4.8 23.5 23.5 0 0 1 7.2 2.4 1.48 1.48 0 0 0 1.3 0 1.73 1.73 0 0 0 .6-1.5V87a2.45 2.45 0 0 0-1.1-2.4"/></svg>
